icon/common.svg

<svg xmlns="http://www.w3.org/2000/svg" xmlns:xlink="http://www.w3.org/1999/xlink" width="500" zoomAndPan="magnify" viewBox="0 0 375 374.999991" height="500" preserveAspectRatio="xMidYMid meet" version="1.0"><defs><clipPath id="19f239ee1c"><path d="M 73 21 L 291 21 L 291 355.152344 L 73 355.152344 Z M 73 21 " clip-rule="nonzero"/></clipPath></defs><g clip-path="url(#19f239ee1c)"><path fill="#ffffff" d="M 97.300781 80.773438 C 110.933594 51.582031 137.550781 19.800781 188.984375 21.285156 C 297 24.40625 304.496094 132.988281 277.855469 184.574219 C 255.304688 228.238281 197.933594 266.949219 192.839844 286.015625 C 188.726562 301.425781 182.472656 355.03125 134.628906 355.09375 C 94.078125 355.140625 70.972656 323.941406 74.097656 288.992188 C 76.398438 263.214844 94 241.585938 104.144531 255.722656 C 115.929688 272.140625 79.050781 285.304688 97.199219 313.949219 C 105.628906 327.257812 117.175781 335.796875 134.660156 335.796875 C 169.757812 335.796875 170.652344 291.929688 177.746094 279.007812 C 190.21875 256.285156 262.601562 197.824219 265.78125 136.3125 C 268.28125 88.054688 240.851562 43.761719 180.035156 47.285156 C 122.59375 50.617188 109.6875 97.414062 107.609375 121.949219 C 105.878906 142.339844 112.5625 165.035156 100.640625 164.605469 C 89.082031 164.1875 82.632812 112.183594 97.300781 80.773438 Z M 97.300781 80.773438 " fill-opacity="1" fill-rule="evenodd"/></g><path fill="#ffffff" d="M 207.921875 179.585938 C 216.136719 183.277344 230.09375 161.328125 233.941406 141.097656 C 238.726562 115.929688 234.988281 93.460938 214.167969 78.070312 C 175.84375 49.722656 128.835938 72.25 121.652344 115.671875 C 114.035156 161.691406 157.148438 157.574219 144.152344 188.902344 C 140.183594 198.480469 127.320312 209.796875 122.382812 218.054688 C 115.125 230.183594 118.007812 246.5625 128.574219 252.90625 C 153.824219 268.074219 182.804688 233.296875 185.6875 192.359375 C 188.140625 157.542969 141.925781 143.652344 144.722656 117.398438 C 147.148438 94.714844 167.152344 80.414062 190.226562 86.179688 C 213.308594 91.949219 227.066406 124.871094 214.996094 152.125 C 209.46875 164.621094 199.597656 175.839844 207.921875 179.585938 Z M 207.921875 179.585938 " fill-opacity="1" fill-rule="evenodd"/></svg>

<svg width="500" height="500" viewBox="0 0 375 375" xmlns="http://www.w3.org/2000/svg"><defs><clipPath><path d="M73 21h218v334.152H73Zm0 0"/></clipPath></defs><g clip-path="url(#a)"><path fill-rule="evenodd" d="M97.3 80.773c13.634-29.191 40.25-60.972 91.684-59.488C297 24.406 304.496 132.988 277.855 184.575c-22.55 43.663-79.921 82.374-85.015 101.44-4.113 15.41-10.367 69.016-58.211 69.079-40.55.047-63.656-31.153-60.531-66.102 2.3-25.777 19.902-47.406 30.047-33.27 11.785 16.419-25.094 29.583-6.946 58.227 8.43 13.309 19.977 21.848 37.461 21.848 35.098 0 35.992-43.867 43.086-56.79 12.473-22.722 84.856-81.183 88.035-142.694 2.5-48.258-24.93-92.551-85.746-89.028-57.441 3.332-70.347 50.13-72.426 74.664-1.73 20.39 4.954 43.086-6.968 42.656-11.559-.417-18.008-52.421-3.34-83.832m0 0"/></g><path fill-rule="evenodd" d="M207.922 179.586c8.215 3.691 22.172-18.258 26.02-38.488 4.785-25.168 1.046-47.637-19.774-63.028-38.324-28.347-85.332-5.82-92.516 37.602-7.617 46.02 35.496 41.902 22.5 73.23-3.968 9.578-16.832 20.895-21.77 29.153-7.257 12.129-4.374 28.507 6.192 34.851 25.25 15.168 54.23-19.61 57.113-60.547 2.454-34.816-43.761-48.707-40.964-74.96 2.425-22.684 22.43-36.985 45.504-31.22 23.082 5.77 36.84 38.692 24.77 65.946-5.528 12.496-15.4 23.715-7.075 27.46m0 0"/></svg>
